X:8923
T:La fille du fermier
R:Valse
O:France
M:3/4
L:1/4
Q:1/4=200
K:G
GAB|c>Bc|dcB|ABc|d3|ded|c2B|A3-|A3:|
|:ded|G2A|BAG|=F2G|A2d|c2A/2B/2|cBA|G3-|G3:|
|:G G/2F/2 G/2A/2|BGE|BB/2A/2 B/2c/2|d2B/2c/2|d d/2e/2 d/2c/2|
B/2G/2 B/2d/2 c/2B/2|A/2F/2 A/2c/2 B/2A/2|1BGD:|2G3-|G3||


